X:1
T:James Badell-Powell
T:Salve Festa Dies 2
%%score 1 { ( 2 3 ) | ( 4 5 6 ) }
L:1/8
Q:1/4=184
M:4/2
K:C
V:1 treble nm="Voice" snm="Vo."
V:2 treble nm="Piano" snm="Pno."
V:3 treble 
V:4 bass 
V:5 bass 
V:6 bass 
V:1
"^Presto" z16 | z16 | z16 | z16 | z16 | z16 | z16 | z16 | c4 z4 E6 F2 | G12 G4 | A4 B4 c4 c4 | %11
 B12 B4 | (B4 c4 d4) (c2 B2) | c4 (B2 A2) G4 A4 | G12 G4 | G16 | z16 | z16 | z16 | z16 | z16 | %21
 z16 | z16 | z16 | (E6 F2) G4 G4 | (G4 F4 E4) E4 | F4 G4 A4 A4 | ^G16 | A8 B4 c4 | (c4 B4 A4) c4 | %30
 B4 A4 G4 A4 | G16 | z16 | z16 | z16 | z16 | z16 | z16 | z16 | z16 | G4 | c12 c4 | (c8 B4) E4 | %43
 A6 B2 c4 d4 | e12 d4 | (c6 B2 A4) c4 | (B6 A2 G4) c4 | d4 e4 A4 A4 | G16 | z16 | z16 | z16 | z16 | %53
 z16 | z16 | z16 | z16 | c8 E6 F2 | G12 G4 | A4 B4 c4 c4 | B12 B4 | (B4 c4 d4) (c2 B2) | %62
 c4 (B2 A2) G4 A4 | G12 G4 | G16 | z16 | z16 | z16 | z16 | z16 | z16 | z16 | z16 | G4 | %74
 (A4 B4 c4) c4 | (B4 A4 G4) G4 | A4 B4 c4 c4 | B12 ^F4 | (G4 A4 B4) c4 | d4 B4 G4 c4 | A12 A4 | %81
 G16 | z16 | z16 | z16 | z16 | z16 | z16 | z16 | z16 | G4 | (A4 B4 c4) c4 | (B4 A4 G4) G4 | %93
 A4 B4 c4 c4 | B12 ^F4 | (G4 A4 B4) c4 | d4 B4 G4 c4 | A12 A4 | G16 | z16 | z16 | z16 | z16 | z16 | %104
 z16 | z16 | z16 | (E6 F2) G4 G4 | (G4 F4 E4) E4 | F4 G4 A4 A4 | ^G16 | A8 B4 c4 | (c4 B4 A4) c4 | %113
 B4 A4 G4 A4 | G16 | z16 | z16 | z16 | z16 | z16 | z16 | z16 | z16 | G4 | c6 c2 c4 c4 | %125
 (c8 B4) E4 | A6 B2 c4 d4 | e12 d4 | (c6 B2 A4) c4 | (B6 A2 G4) c4 | d4 e4 A4 A4 | G16 | z16 | %133
 z16 | z16 | z16 | z16 | z16 | z16 | z16 | c8 E6 F2 | G12 G4 | A4 B4 c4 c4 | B12 B4 | %144
 (B4 c4 d4) (c2 B2) | c4 (B2 A2) G4 A4 | G12 G4 | G16 | z16 | z16 | z16 | z16 | z16 | z16 | z16 | %155
 z16 | G4 | (A4 B4 c4) c4 | (B4 A4 G4) G4 | A4 B4 c4 c4 | B12 ^F4 | (G4 A4 B4) c4 | d4 B4 G4 c4 | %163
 A12 A4 | G16 | z16 | z16 | z16 | z16 | z16 | z16 | z16 | z16 | G4 | c6 c2 c4 c4 | (c8 B4) E4 | %176
 A6 B2 c4 d4 | e12 d4 | (c6 B2 A4) c4 | (B6 A2 G4) c4 | d4 e4 A4 A4 | G16 | z16 | z16 | z16 | z16 | %186
 z16 | z16 | z16 | z16 | z16 | z16 | z16 |] %193
V:2
 c4 z4 E6 F2 | G12 G4 | A4 B4 c4 c4 | B12 B4 | (B4 c4 d4) (c2 B2) | c4 (d2 e2) f4 (g2 a2) | %6
 [Gg]16 | [Gg]16 | z16 | z16 | z16 | z16 | z16 | z16 | z16 | z16 | c4 z4 E6 F2 | G12 G4 | %18
 A4 B4 c4 c4 | B12 B4 | (B4 c4 d4) (c2 B2) | c4 (B2 A2) G4 A4 | G12 G4 | G16 | (E6 F2) G4 G4 | %25
 (G4 F4 E4) E4 | F4 G4 A4 A4 | ^G16 | A8 B4 c4 | (c4 B4 A4) c4 | B4 A4 G4 A4 | G16 | c4 z4 E6 F2 | %33
 G12 G4 | A4 B4 c4 c4 | B12 B4 | (B4 c4 d4) (c2 B2) | c4 (B2 A2) G4 A4 | G12 G4 | G16 | G4 | %41
 c6 G2 c4 c4 | G12 B4 | A6 ^G2 A4 A4 | ^G12 G4 | (A6 B2 c4) ^F4 | (G6 A2 B4) c4 | d4 e4 A4 A4 | %48
 G16 | c4 z4 E6 F2 | G12 G4 | A4 B4 c4 c4 | B12 B4 | (B4 c4 d4) (c2 B2) | c4 (B2 A2) G4 A4 | %55
 G12 G4 | G16 | c8 E6 F2 | G12 G4 | A4 B4 c4 c4 | B12 B4 | (B4 c4 d4) (c2 B2) | c4 (B2 A2) G4 A4 | %63
 G12 G4 | G16 | c4 z4 E6 F2 | G12 G4 | A4 B4 c4 c4 | B12 B4 | (B4 c4 d4) (c2 B2) | %70
 c4 (B2 A2) G4 A4 | G12 G4 | G16 | G4 | (A4 [GB]4 [Gc]4) [Ac]4 | ([GB]4 A4 G4) G4 | A4 B4 c4 c4 | %77
 B12 ^F4 | (G4 A4 B4) c4 | d4 B4 G4 c4 | A12 A4 | G16 | c4 z4 E6 F2 | G12 G4 | A4 B4 c4 c4 | %85
 B12 B4 | (B4 c4 d4) (c2 B2) | c4 (B2 A2) G4 A4 | G12 G4 | G16 | G4 | (A4 [GB]4 [Gc]4) [Ac]4 | %92
 ([GB]4 A4 G4) G4 | A4 B4 c4 c4 | B12 ^F4 | (G4 A4 B4) c4 | d4 B4 G4 c4 | A12 A4 | G16 | %99
 c4 z4 E6 F2 | G12 G4 | A4 B4 c4 c4 | B12 B4 | (B4 c4 d4) (c2 B2) | c4 (B2 A2) G4 A4 | G12 G4 | %106
 G16 | (E6 F2) G4 G4 | (G4 F4 E4) E4 | F4 G4 A4 A4 | ^G16 | A8 B4 c4 | (c4 B4 A4) c4 | %113
 B4 A4 G4 A4 | G16 | c4 z4 E6 F2 | G12 G4 | A4 B4 c4 c4 | B12 B4 | (B4 c4 d4) (c2 B2) | %120
 c4 (B2 A2) G4 A4 | G12 G4 | G16 | G4 | c6 G2 c4 c4 | G12 B4 | A6 ^G2 A4 A4 | ^G12 G4 | %128
 (A6 B2 c4) ^F4 | (G6 A2 B4) c4 | d4 e4 A4 A4 | G16 | c4 z4 E6 F2 | G12 G4 | A4 B4 c4 c4 | B12 B4 | %136
 (B4 c4 d4) (c2 B2) | c4 (B2 A2) G4 A4 | G12 G4 | G16 | c8 E6 F2 | G12 G4 | A4 B4 c4 c4 | B12 B4 | %144
 (B4 c4 d4) (c2 B2) | c4 (B2 A2) G4 A4 | G12 G4 | G16 | c4 z4 E6 F2 | G12 G4 | A4 B4 c4 c4 | %151
 B12 B4 | (B4 c4 d4) (c2 B2) | c4 (B2 A2) G4 A4 | G12 G4 | G16 | G4 | (A4 [GB]4 [Gc]4) [Ac]4 | %158
 ([GB]4 A4 G4) G4 | A4 B4 c4 c4 | B12 ^F4 | (G4 A4 B4) c4 | d4 B4 G4 c4 | A12 A4 | G16 | %165
 c4 z4 E6 F2 | G12 G4 | A4 B4 c4 c4 | B12 B4 | (B4 c4 d4) (c2 B2) | c4 (B2 A2) G4 A4 | G12 G4 | %172
 G16 | G4 | c6 G2 c4 c4 | G12 B4 | A6 ^G2 A4 A4 | ^G12 G4 | (A6 B2 c4) ^F4 | (G6 A2 B4) c4 | %180
 d4 e4 A4 A4 | G16 | c4 z4 E6 F2 | G8 z4 G4 | A4 B4 c4 c4 | B12 B4 | (B4 c4 d4) (c2 B2) | %187
 c4 (B2 A2) G4 A4 | G12 G4 | G16 | c8 E6 F2 | G12 [DFG]4 | [EGc]8 z8 |] %193
V:3
 E4 z4 E6 F2 | (D8 C4) E4 | F4 G4 G4 ^F4 | G12 A4 | (^G4 A8) =G4 | E4 G4 A4 [Gc]4 | %6
 c4 B2 A2 B4 c2 d2 | c16 | x16 | x16 | x16 | x16 | x16 | x16 | x16 | x16 | E4 z4 E6 C2 | %17
 (D8 C4) E4 | F4 G4 G4 ^F4 | G12 A4 | (^G4 A8) =G4 | (A2 G2) F4 E4 F4 | D12 (D2 F2) | E16 | %24
 C8 D4 B,4 | C4 D4 C8 | F4 E4 E4 ^D4 | E16 | z4 E4 D4 C4 | C4 D4 E4 C4 | D4 E4 D4 ^F4 | G16 | %32
 E4 z4 E6 C2 | (D8 C4) E4 | F4 G4 G4 ^F4 | G12 A4 | (^G4 A8) =G4 | (A2 G2) F4 E4 F4 | D12 (E2 F2) | %39
 E16 | G4 | c6 G2 G4 _E4 | D12 E4 | E6 E2 E4 D4 | E12 E4 | E12 D4 | D12 C4 | G8- G4 ^F4 | G16 | %49
 E4 z4 E6 C2 | (D8 C4) E4 | F4 G4 G4 ^F4 | G12 A4 | (^G4 A8) =G4 | (A2 G2) F4 E4 F4 | D12 (D2 F2) | %56
 E16 | E8 C6 C2 | (D8 C4) E4 | F4 G4 G4 ^F4 | G12 A4 | ^G4 A8 G4 | (A2 G2) F4 E4 F4 | D12 (E2 F2) | %64
 E16 | E4 z4 E6 C2 | (D8 C4) E4 | F4 G4 G4 ^F4 | G12 A4 | (^G4 A8) =G4 | (A2 G2) F4 E4 F4 | %71
 D12 (D2 F2) | E16 | B,4 | C4 D4 C4 C4 | D4 C4 B,4 E4 | E4 D4 C4 (^F2 E2) | ^D12 ^F4 | %78
 E4 ^F4 G4 G4 | G4 ^F4 E4 G4 | (G4 ^F2 E2 F4) F4 | D16 | E4 z4 E6 C2 | (D8 C4) E4 | F4 G4 G4 ^F4 | %85
 G12 A4 | (^G4 A8) =G4 | (A2 G2) F4 E4 F4 | D12 (D2 F2) | E16 | B,4 | C4 D4 C4 C4 | D4 C4 B,4 E4 | %93
 E4 D4 C4 (^F2 E2) | ^D12 ^F4 | E4 ^F4 G4 G4 | G4 ^F4 E4 G4 | (G4 ^F2 E2 F4) F4 | D16 | %99
 E4 z4 E6 C2 | (D8 C4) E4 | F4 G4 G4 ^F4 | G12 A4 | (^G4 A8) =G4 | (A2 G2) F4 E4 F4 | D12 (D2 F2) | %106
 E16 | C8 D4 B,4 | C4 D4 C8 | F4 E4 E4 ^D4 | E16 | z4 E4 D4 C4 | C4 D4 E4 C4 | D4 E4 D4 ^F4 | G16 | %115
 E4 z4 E6 C2 | (D8 C4) E4 | F4 G4 G4 ^F4 | G12 A4 | (^G4 A8) =G4 | (A2 G2) F4 E4 F4 | D12 (E2 F2) | %122
 E16 | G4 | c6 G2 G4 _E4 | D12 E4 | E6 E2 E4 D4 | E12 E4 | E12 D4 | D12 C4 | G8- G4 ^F4 | G16 | %132
 E4 z4 E6 C2 | (D8 C4) E4 | F4 G4 G4 ^F4 | G12 A4 | (^G4 A8) =G4 | (A2 G2) F4 E4 F4 | D12 (D2 F2) | %139
 E16 | E8 C6 C2 | (D8 C4) E4 | F4 G4 G4 ^F4 | G12 A4 | ^G4 A8 G4 | (A2 G2) F4 E4 F4 | D12 (E2 F2) | %147
 E16 | E4 z4 E6 C2 | (D8 C4) E4 | F4 G4 G4 ^F4 | G12 A4 | (^G4 A8) =G4 | (A2 G2) F4 E4 F4 | %154
 D12 (D2 F2) | E16 | B,4 | C4 D4 C4 C4 | D4 C4 B,4 E4 | E4 D4 C4 (^F2 E2) | ^D12 ^F4 | %161
 E4 ^F4 G4 G4 | G4 ^F4 E4 G4 | (G4 ^F2 E2 F4) F4 | D16 | E4 z4 E6 C2 | (D8 C4) E4 | F4 G4 G4 ^F4 | %168
 G12 A4 | (^G4 A8) =G4 | (A2 G2) F4 E4 F4 | D12 (D2 F2) | E16 | G4 | c6 G2 G4 _E4 | D12 E4 | %176
 E6 E2 E4 D4 | E12 E4 | E12 D4 | D12 C4 | G8- G4 ^F4 | G16 | E4 z4 E6 C2 | (D8 C4) E4 | %184
 F4 G4 G4 ^F4 | G12 A4 | (^G4 A8) G4 | (A2 G2) F4 E4 F4 | D12 (E2 F2) | E16 | x16 | x16 | x16 |] %193
V:4
 z16 | z16 | z16 | z16 | z16 | z16 | z16 | z16 | z16 | z16 | z16 | z16 | z16 | z16 | z16 | z16 | %16
 z16 | z16 | z16 | z16 | z16 | z16 | z16 | z16 | z16 | z16 | z16 | z16 | z16 | z16 | z16 | z16 | %32
 z16 | z16 | z16 | z16 | z16 | z16 | z16 | z16 | z4 | z16 | z16 | z16 | z16 | z16 | z16 | z16 | %48
 z16 | z16 | z16 | z16 | z16 | z16 | z16 | z16 | z16 | z16 | z16 | z16 | z16 | z16 | z16 | z16 | %64
 z16 | z16 | z16 | z16 | z16 | z16 | z16 | z16 | z16 | G,4 | (^F,4 =F,4 E,4) _E,4 | %75
 (D,4 E,2 ^F,2 G,4) B,4 | A,4 ^G,4 A,6 =G,2 | ^F,12 B,4 | (B,4 D4 D4) C4 | G,4 B,4 B,4 E4 | %80
 D12 C4 | B,16 | z16 | z16 | z16 | z16 | z16 | z16 | z16 | z16 | G,4 | (^F,4 =F,4 E,4) _E,4 | %92
 (D,4 E,2 ^F,2 G,4) B,4 | A,4 ^G,4 A,6 =G,2 | ^F,12 B,4 | (B,4 D4 D4) C4 | G,4 B,4 B,4 E4 | %97
 D12 C4 | B,16 | z16 | z16 | z16 | z16 | z16 | z16 | z16 | z16 | z16 | z16 | z16 | z16 | z16 | %112
 z16 | z16 | z16 | z16 | z16 | z16 | z16 | z16 | z16 | z16 | z16 | z4 | z16 | z16 | z16 | z16 | %128
 z16 | z16 | z16 | z16 | z16 | z16 | z16 | z16 | z16 | z16 | z16 | z16 | z16 | z16 | z16 | z16 | %144
 z16 | z16 | z16 | z16 | z16 | z16 | z16 | z16 | z16 | z16 | z16 | z16 | G,4 | %157
 (^F,4 =F,4 E,4) _E,4 | (D,4 E,2 ^F,2 G,4) B,4 | A,4 ^G,4 A,6 =G,2 | ^F,12 B,4 | (B,4 D4 D4) C4 | %162
 G,4 B,4 B,4 E4 | D12 C4 | B,16 | z16 | z16 | z16 | z16 | z16 | z16 | z16 | z16 | z4 | z16 | z16 | %176
 z16 | z16 | z16 | z16 | z16 | z16 | z16 | z16 | z16 | z16 | z16 | z16 | z16 | z16 | z16 | z16 | %192
 z16 |] %193
V:5
 [C,G,C]4 z4 [A,C]6 [A,C]2 | ([G,C]4 B,4 C4) C4 | C4 D4 C4 A,4 | (B,4 C4 D4) ^D4 | (E8 F4) E,4 | %5
 [A,C]4 [G,B,]4 [F,C]4 [E,C]4 | E4 D2 C2 D4 E2 F2 | C16 | x16 | x16 | x16 | x16 | x16 | x16 | x16 | %15
 x16 | C4 z4 C6 C2 | (C4 B,4 C4) C4 | C4 D4 C4 A,4 | B,4 C4 D4 ^D4 | (E8 F4) D4 | C4 D4 E4 C4 | %22
 (C4 B,2 A,2 B,4) (C2 D2) | C16 | G,16- | G,16 | [A,C]4 [G,_B,]4 [F,A,]4 A,4 | B,16 | %28
 A,8 ^G,4 A,4 | ^F,4 G,8 =F,4 | G,4 C4 B,4 C4 | [G,B,]16 | C4 z4 C6 C2 | (C4 B,4 C4) C4 | %34
 C4 D4 C4 A,4 | B,4 C4 D4 ^D4 | (E8 F4) D4 | C4 D4 E4 C4 | (C4 B,2 A,2 B,4) (C2 D2) | C16 | G,4 | %41
 C6 G,2 C4 C4 | (C8 B,4) D4 | C6 B,2 A,4 A,4 | B,12 B,4 | (A,6 D2 C4) A,4 | (G,6 C2 B,4) G,4 | %47
 B,4 A,8 C4 | (B,4 A,4 G,4 F,4) | C4 z4 C6 C2 | (C4 B,4 C4) C4 | C4 D4 C4 A,4 | B,4 C4 D4 ^D4 | %53
 (E8 F4) D4 | C4 D4 E4 C4 | (C4 B,2 A,2 B,4) (C2 D2) | C16 | [G,C]8 A,6 A,2 | %58
 [G,C]4 [F,B,]4 [E,C]4 C4 | C4 D4 C4 A,4 | B,4 C4 D4 ^D4 | E8 F4 D4 | C4 D4 E4 C4 | %63
 (C4 B,2 A,2 B,4) (C2 D2) | C16 | C4 z4 C6 C2 | (C4 B,4 C4) C4 | C4 D4 C4 A,4 | B,4 C4 D4 ^D4 | %69
 (E8 F4) D4 | C4 D4 E4 C4 | (C4 B,2 A,2 B,4) (C2 D2) | C16 | x4 | x16 | x16 | x16 | x16 | x16 | %79
 x16 | x16 | x16 | C4 z4 C6 C2 | (C4 B,4 C4) C4 | C4 D4 C4 A,4 | B,4 C4 D4 ^D4 | (E8 F4) D4 | %87
 C4 D4 E4 C4 | (C4 B,2 A,2 B,4) (C2 D2) | C16 | x4 | x16 | x16 | x16 | x16 | x16 | x16 | x16 | %98
 x16 | C4 z4 C6 C2 | (C4 B,4 C4) C4 | C4 D4 C4 A,4 | B,4 C4 D4 ^D4 | (E8 F4) D4 | C4 D4 E4 C4 | %105
 (C4 B,2 A,2 B,4) (C2 D2) | C16 | G,16- | G,16 | [A,C]4 [G,_B,]4 [F,A,]4 A,4 | B,16 | %111
 A,8 ^G,4 A,4 | ^F,4 G,8 =F,4 | G,4 C4 B,4 C4 | [G,B,]16 | C4 z4 C6 C2 | (C4 B,4 C4) C4 | %117
 C4 D4 C4 A,4 | B,4 C4 D4 ^D4 | (E8 F4) D4 | C4 D4 E4 C4 | (C4 B,2 A,2 B,4) (C2 D2) | C16 | G,4 | %124
 C6 G,2 C4 C4 | (C8 B,4) D4 | C6 B,2 A,4 A,4 | B,12 B,4 | (A,6 D2 C4) A,4 | (G,6 C2 B,4) G,4 | %130
 B,4 A,8 C4 | (B,4 A,4 G,4 F,4) | C4 z4 C6 C2 | (C4 B,4 C4) C4 | C4 D4 C4 A,4 | B,4 C4 D4 ^D4 | %136
 (E8 F4) D4 | C4 D4 E4 C4 | (C4 B,2 A,2 B,4) (C2 D2) | C16 | [G,C]8 A,6 A,2 | %141
 [G,C]4 [F,B,]4 [E,C]4 C4 | C4 D4 C4 A,4 | B,4 C4 D4 ^D4 | E8 F4 D4 | C4 D4 E4 C4 | %146
 (C4 B,2 A,2 B,4) (C2 D2) | C16 | C4 z4 C6 C2 | (C4 B,4 C4) C4 | C4 D4 C4 A,4 | B,4 C4 D4 ^D4 | %152
 (E8 F4) D4 | C4 D4 E4 C4 | (C4 B,2 A,2 B,4) (C2 D2) | C16 | x4 | x16 | x16 | x16 | x16 | x16 | %162
 x16 | x16 | x16 | C4 z4 C6 C2 | (C4 B,4 C4) C4 | C4 D4 C4 A,4 | B,4 C4 D4 ^D4 | (E8 F4) D4 | %170
 C4 D4 E4 C4 | (C4 B,2 A,2 B,4) (C2 D2) | C16 | G,4 | C6 G,2 C4 C4 | (C8 B,4) D4 | C6 B,2 A,4 A,4 | %177
 B,12 B,4 | (A,6 D2 C4) A,4 | (G,6 C2 B,4) G,4 | B,4 A,8 C4 | (B,4 A,4 G,4 F,4) | C4 z4 C6 C2 | %183
 (C4 B,4 C4) C4 | C4 D4 C4 A,4 | (B,4 C4 D4) ^D4 | (E8 F4) D4 | C4 D4 E4 C4 | %188
 (C4 B,2 A,2 B,4) (C2 D2) | C16 | C8 E,6 F,2 | G,12 [G,,D,G,B,]4 | [C,,C,G,C]8 z8 |] %193
V:6
 C,,4 z4 A,,6 A,,2 | (G,,4 F,4 E,4) C,4 | F,4 F,4 E,4 A,4 | (G,4 A,4 G,4) D,4 | %4
 (E,4 D,2 C,2) B,,4 E,,4 | A,,4 G,,4 F,,4 E,,4 | [G,,G,-]16 | [E,,C,G,]16 | x16 | x16 | x16 | x16 | %12
 x16 | x16 | x16 | x16 | [C,,C,G,]4 z4 [A,,A,]6 [A,,A,]2 | ([G,,G,]4 F,4 E,4) C,4 | %18
 F,4 F,4 E,4 A,4 | (G,4 A,4 G,4) F,4 | (E,4 D,2 C,2 B,,4) [E,,E,]4 | %21
 [A,,A,]4 [B,,B,]4 [C,C]4 [F,,F,]4 | [G,,G,]12 [G,,G,]4 | [C,G,]16 | C,8 B,,4 G,,4 | %25
 (A,,4 B,,4 C,4) _B,,4 | A,,4 G,,4 F,,4 F,4 | (E,4 F,4 E,4 D,4) | C,8 B,,4 A,,4 | %29
 (A,,4 B,,4 C,4) A,,4 | B,,4 C,4 D,4 D,4 | (G,,4 F,,4 E,,4 D,,4) | %32
 [C,,C,G,]4 z4 [A,,A,]6 [A,,A,]2 | ([G,,G,]4 F,4 E,4) C,4 | F,4 F,4 E,4 A,4 | (G,4 A,4 G,4) F,4 | %36
 (E,4 D,2 C,2 B,,4) [E,,E,]4 | [A,,A,]4 [B,,B,]4 [C,C]4 [F,,F,]4 | [G,,G,]12 [G,,G,]4 | [C,G,]16 | %40
 G,4 | C6 G,2 E,4 ^F,4 | (G,4 A,4 B,4) ^G,4 | A,6 C,2 C,4 F,4 | E,12 D,4 | (C,6 B,,2 A,,4) C,4 | %46
 (B,,6 A,,2 G,,4) E,4 | B,,4 C,4 D,4 D,4 | (G,4 F,4 E,4 D,4) | [C,,C,G,]4 z4 [A,,A,]6 [A,,A,]2 | %50
 ([G,,G,]4 F,4 E,4) C,4 | F,4 F,4 E,4 A,4 | (G,4 A,4 G,4) F,4 | (E,4 D,2 C,2 B,,4) [E,,E,]4 | %54
 [A,,A,]4 [B,,B,]4 [C,C]4 [F,,F,]4 | [G,,G,]12 [G,,G,]4 | [C,G,]16 | C,8 A,,6 A,,2 | %58
 (G,,4 F,4 E,4) C,4 | F,4 F,4 E,4 A,4 | (G,4 A,4 G,4) F,4 | (E,4 D,2 C,2 B,,4) E,4 | %62
 A,4 B,4 C4 F,4 | G,12 [G,,G,]4 | [C,G,]16 | [C,,C,G,]4 z4 [A,,A,]6 [A,,A,]2 | %66
 ([G,,G,]4 F,4 E,4) C,4 | F,4 F,4 E,4 A,4 | (G,4 A,4 G,4) F,4 | (E,4 D,2 C,2 B,,4) [E,,E,]4 | %70
 [A,,A,]4 [B,,B,]4 [C,C]4 [F,,F,]4 | [G,,G,]12 [G,,G,]4 | [C,G,]16 | G,,4 | G,,16- | G,,12 E,4 | %76
 C,4 B,,4 A,,4 A,,4 | B,,12 ^D,4 | (E,4 D,4 G,4) E,4 | B,,4 D,4 E,4 A,,4 | D,12 D,4 | %81
 (G,4 F,4 E,4 D,4) | [C,,C,G,]4 z4 [A,,A,]6 [A,,A,]2 | ([G,,G,]4 F,4 E,4) C,4 | F,4 F,4 E,4 A,4 | %85
 (G,4 A,4 G,4) F,4 | (E,4 D,2 C,2 B,,4) [E,,E,]4 | [A,,A,]4 [B,,B,]4 [C,C]4 [F,,F,]4 | %88
 [G,,G,]12 [G,,G,]4 | [C,G,]16 | G,,4 | G,,16- | G,,12 E,4 | C,4 B,,4 A,,4 A,,4 | B,,12 ^D,4 | %95
 (E,4 D,4 G,4) E,4 | B,,4 D,4 E,4 A,,4 | D,12 D,4 | (G,4 F,4 E,4 D,4) | %99
 [C,,C,G,]4 z4 [A,,A,]6 [A,,A,]2 | ([G,,G,]4 F,4 E,4) C,4 | F,4 F,4 E,4 A,4 | (G,4 A,4 G,4) F,4 | %103
 (E,4 D,2 C,2 B,,4) [E,,E,]4 | [A,,A,]4 [B,,B,]4 [C,C]4 [F,,F,]4 | [G,,G,]12 [G,,G,]4 | [C,G,]16 | %107
 C,8 B,,4 G,,4 | (A,,4 B,,4 C,4) _B,,4 | A,,4 G,,4 F,,4 F,4 | (E,4 F,4 E,4 D,4) | C,8 B,,4 A,,4 | %112
 (A,,4 B,,4 C,4) A,,4 | B,,4 C,4 D,4 D,4 | (G,,4 F,,4 E,,4 D,,4) | %115
 [C,,C,G,]4 z4 [A,,A,]6 [A,,A,]2 | ([G,,G,]4 F,4 E,4) C,4 | F,4 F,4 E,4 A,4 | (G,4 A,4 G,4) F,4 | %119
 (E,4 D,2 C,2 B,,4) [E,,E,]4 | [A,,A,]4 [B,,B,]4 [C,C]4 [F,,F,]4 | [G,,G,]12 [G,,G,]4 | [C,G,]16 | %123
 G,4 | C6 G,2 E,4 ^F,4 | (G,4 A,4 B,4) ^G,4 | A,6 C,2 C,4 F,4 | E,12 D,4 | (C,6 B,,2 A,,4) C,4 | %129
 (B,,6 A,,2 G,,4) E,4 | B,,4 C,4 D,4 D,4 | (G,4 F,4 E,4 D,4) | [C,,C,G,]4 z4 [A,,A,]6 [A,,A,]2 | %133
 ([G,,G,]4 F,4 E,4) C,4 | F,4 F,4 E,4 A,4 | (G,4 A,4 G,4) F,4 | (E,4 D,2 C,2 B,,4) [E,,E,]4 | %137
 [A,,A,]4 [B,,B,]4 [C,C]4 [F,,F,]4 | [G,,G,]12 [G,,G,]4 | [C,G,]16 | C,8 A,,6 A,,2 | %141
 (G,,4 F,4 E,4) C,4 | F,4 F,4 E,4 A,4 | (G,4 A,4 G,4) F,4 | (E,4 D,2 C,2 B,,4) E,4 | %145
 A,4 B,4 C4 F,4 | G,12 [G,,G,]4 | [C,G,]16 | [C,,C,G,]4 z4 [A,,A,]6 [A,,A,]2 | %149
 ([G,,G,]4 F,4 E,4) C,4 | F,4 F,4 E,4 A,4 | (G,4 A,4 G,4) F,4 | (E,4 D,2 C,2 B,,4) [E,,E,]4 | %153
 [A,,A,]4 [B,,B,]4 [C,C]4 [F,,F,]4 | [G,,G,]12 [G,,G,]4 | [C,G,]16 | G,,4 | G,,16- | G,,12 E,4 | %159
 C,4 B,,4 A,,4 A,,4 | B,,12 ^D,4 | (E,4 D,4 G,4) E,4 | B,,4 D,4 E,4 A,,4 | D,12 D,4 | %164
 (G,4 F,4 E,4 D,4) | [C,,C,G,]4 z4 [A,,A,]6 [A,,A,]2 | ([G,,G,]4 F,4 E,4) C,4 | F,4 F,4 E,4 A,4 | %168
 (G,4 A,4 G,4) F,4 | (E,4 D,2 C,2 B,,4) [E,,E,]4 | [A,,A,]4 [B,,B,]4 [C,C]4 [F,,F,]4 | %171
 [G,,G,]12 [G,,G,]4 | [C,G,]16 | G,4 | C6 G,2 E,4 ^F,4 | (G,4 A,4 B,4) ^G,4 | A,6 C,2 C,4 F,4 | %177
 E,12 D,4 | (C,6 B,,2 A,,4) C,4 | (B,,6 A,,2 G,,4) E,4 | B,,4 C,4 D,4 D,4 | (G,4 F,4 E,4 D,4) | %182
 [C,G,]4 z4 A,6 A,2 | (G,4 F,4 E,4) C,4 | F,4 F,4 E,4 A,4 | (G,4 A,4 G,4) F,4 | %186
 (E,4 D,2 C,2) B,,4 E,4 | A,4 B,4 C4 F,4 | G,12 [G,,G,]4 | [C,,C,]4 C,4 E,4 G,4 | x16 | x16 | %192
 x16 |] %193

